src/16/trash-16.svg

<?xml version="1.0" encoding="iso-8859-1"?>
<!-- Generator: Adobe Illustrator 19.1.0, SVG Export Plug-In . SVG Version: 6.00 Build 0)  -->
<!DOCTYPE svg PUBLIC "-//W3C//DTD SVG 1.1 Tiny//EN" "http://www.w3.org/Graphics/SVG/1.1/DTD/svg11-tiny.dtd">
<svg version="1.1" baseProfile="tiny" xmlns="http://www.w3.org/2000/svg" xmlns:xlink="http://www.w3.org/1999/xlink" x="0px"
	 y="0px" viewBox="0 0 16 16" xml:space="preserve">
<g id="Layer_1">
	<path d="M13.046,16H3.954c-0.269,0-0.489-0.213-0.5-0.481L3,3.519C2.995,3.383,3.046,3.251,3.14,3.153C3.234,3.056,3.364,3,3.5,3
		h10c0.136,0,0.266,0.056,0.36,0.153c0.094,0.098,0.145,0.229,0.14,0.365l-0.454,12C13.535,15.787,13.314,16,13.046,16z M4.436,15
		h8.129L12.98,4H4.02L4.436,15z"/>
	<path d="M10.5,4h-4C6.224,4,6,3.776,6,3.5v-2C6,1.224,6.224,1,6.5,1h4C10.776,1,11,1.224,11,1.5v2C11,3.776,10.776,4,10.5,4z M7,3
		h3V2H7V3z"/>
	<path d="M15,4H2C1.724,4,1.5,3.776,1.5,3.5S1.724,3,2,3h13c0.276,0,0.5,0.224,0.5,0.5S15.276,4,15,4z"/>
	<path d="M6.5,13.5C6.224,13.5,6,13.276,6,13V6c0-0.276,0.224-0.5,0.5-0.5S7,5.724,7,6v7C7,13.276,6.776,13.5,6.5,13.5z"/>
	<path d="M8.5,13.5C8.224,13.5,8,13.276,8,13V6c0-0.276,0.224-0.5,0.5-0.5S9,5.724,9,6v7C9,13.276,8.776,13.5,8.5,13.5z"/>
	<path d="M10.5,13.5c-0.276,0-0.5-0.224-0.5-0.5V6c0-0.276,0.224-0.5,0.5-0.5S11,5.724,11,6v7C11,13.276,10.776,13.5,10.5,13.5z"/>
</g>
<g id="Layer_2">
</g>
<g id="Layer_3">
</g>
</svg>

<svg baseProfile="tiny" xmlns="http://www.w3.org/2000/svg" viewBox="0 0 16 16"><path d="M13.046 16H3.954a.501.501 0 0 1-.5-.481L3 3.519A.503.503 0 0 1 3.5 3h10a.502.502 0 0 1 .5.518l-.454 12a.502.502 0 0 1-.5.482zm-8.61-1h8.129l.415-11H4.02l.416 11z"/><path d="M10.5 4h-4a.5.5 0 0 1-.5-.5v-2a.5.5 0 0 1 .5-.5h4a.5.5 0 0 1 .5.5v2a.5.5 0 0 1-.5.5zM7 3h3V2H7v1z"/><path d="M15 4H2a.5.5 0 0 1 0-1h13a.5.5 0 0 1 0 1zM6.5 13.5A.5.5 0 0 1 6 13V6a.5.5 0 0 1 1 0v7a.5.5 0 0 1-.5.5zM8.5 13.5A.5.5 0 0 1 8 13V6a.5.5 0 0 1 1 0v7a.5.5 0 0 1-.5.5zM10.5 13.5a.5.5 0 0 1-.5-.5V6a.5.5 0 0 1 1 0v7a.5.5 0 0 1-.5.5z"/></svg>
